X: 109106
T: JENNY NETTLES
Q:"Reel."
R: Reel.
%R:reel
B: James Kerr "Merry Melodies" v.1 p.9 s.1 #6
Z: 2016 John Chambers <jc:trillian.mit.edu>
M: C
L: 1/8
K: A
|: (AB) |\
c2B2 A2a2 | e^fge dBGB |\
c2B2 A2a2 | ge^fd e2 ::\
(AB) |\
cde^f gage | gage dBGB |\
cde^f gagf | ea^gb | a2 :|\
"^Fine."A4 ||

% %newpage
%%sep 1 1 500
%%sep 1 1 500
%%center Set. 13th.

%%sep 1 1 500
%%sep 1 1 500

